X:1
T:Cest a grant tort
T:Cest a grant tort
T:Josquin Baston
C:Josquin Baston
%%score [ 1 2 [ 3 4 ] ]
L:1/8
Q:1/4=90
M:2/2
K:C
V:1 treble nm="Superius" snm="S"
V:2 treble nm="Altus" snm="A"
V:3 treble-8 nm="Tenor 1" snm="T 1"
V:4 treble-8 nm="Tenor 2" snm="T 2"
V:1
 A8 |: c6 d2 | d4 z2 f2 | f3 e d2 d2 | c6 c2 | d2 d2 e4 | z2 e2 e2 c2 | d2 f2 e2 d2- | %8
w: Cest|à grant|tort quon|dict que le pen-|ser n'est|que lan- gueur|du- ne cho-|se'in- cer- tai- *|
w: |je sous-|tient quil|ne peult of- fen-|ser, vue|qui est de|le- al pen-|ser plai- * *|
"^#" d2 c2 d4 |[M:2/4] z2 A2 :|[M:2/2] z2 e2 e4- | e2 d2 c4 | z2 c2 c4- | c2 _B2 A4 | z2 A2 A2 A2 | %15
w: * * ne,|car||||||
w: * * ne,||O doulx|_ pen- ser,|O doulx|_ pen- ser|qui cau- se'à|
 c2 c2 _B4 | A4 z2 f2 | f2 f2 e4- | e4 z2 c2 | d2 f3 e e2- | e2 d2 e4 |: z2 c2 c4 | d4 c4 | %23
w: ||||||||
w: aul- truy pei-|ne, et|à mon cueur|_ par-|faict con- * ten-|* te ment,|oc- troi-|ez moy|
 z2 e2 f3 e | d2 c2 B4 | A2 A2 A2 A2 | c2 B3 A A2- |"^#" A2 G2 A4 | e4 e2 d2 | c2 e2 d2 c2 | %30
w: |||||||
w: quel- que joy-|e cer- tai-|ne, quel- que joy-|e cer- * tai-|* * ne,|de ce pen-|ser que j'ay in-|
 B2 B2 A4 | z2 A2 AB cd | ef e3 d d2- |"^#" d2 c2 d4- | d8 :| %35
w: |||||
w: ces- sa- ment,|que j'ay _ _ _|_ _ in- * ces-|* sa- ment.|_|
V:2
 E8 |: A6 A2 | A4 z2 A2 | A2 A2 _B2 B2 | A6 A2 | A2 B2 c4- | c2 c2 c2 A2 | B2 c2 cB AG | A4 F4 | %9
w: Cest|à grant|tort quon|dict que le pen-|ser n'est|que lan- gueur|_ du- ne cho-|se'in- cer- tai- * * *|* ne,|
w: |je sous-|tient quil|ne peult of- fen-|ser, vue|qui est de|_ le- al pen-|ser plai- * * * *|* ne,|
[M:2/4] z2 E2 :|[M:2/2] z2 c2 c4- | c2 A2 A4 | z2 A2 A4- | A2 F2 F2 C2 | D2 C2 FE FG | A2 A2 G3 F | %16
w: car|O doulx|_ pen- ser,|O doulx|_ pen- ser qui|cau- se'à aul- * * *|* truy pei- *|
w: |||||||
 E4 F2 F2 | FG AB c2 c2 | c2 B2 A4- | A2 A2 A4- | A8 |: z2 A2 A4 | _B4 A2 A2 | c3 B A2 c2 | %24
w: ne, et à|mon _ _ _ cueur par-|faict con ten-|* te- ment,|_|oc- troi-|ez moy quel-|que que joy- e|
w: ||||||||
 B2 A4 G2 | A2 E2 E4- | E2 E2 F2 D2 | E4 C4 | z2 c2 c2 A2 | A2 c2 BA A2- | A2 G2 A2 A2 | %31
w: cer- tai- *|ne, que- que|_ joy- e cer-|tai- ne,|de ce pen-|ser que jay _ in-|* ces- * sa|
w: |||||||
 G2 F2 E2 A2 | A2 G2 _B2 G2 | A4 A4- | A8 :| %35
w: ment, que jay in|ces- * * *|sa- ment;|_|
w: ||||
V:3
 c8 |: e6 f2 | f2 f2 f4- | f2 f2 g2 g2 | e6 e2 | f2 f2 g4- | g4 z2 e2 | g2 a2 g2 f2 | e4 d4 | %9
w: Cest|à grant|tort quon dict|_ que le pen-|ser n'est|que lan- gueur|_ du-|ne cho- se'in- cer-|tai- ne,|
w: |je sous-|tient quil ne|_ peult of- fen-|ser, vue|qui est de|_ le-|al pen- ser plai-|* ne,|
[M:2/4] z2 c2 :|[M:2/2] z2 a2 g4- | g2 f2 e4 | z2 f2 e4- | e2 d2 c4 | z2 c2 d2 c2 | f3 e d4 | %16
w: car|O doulx|_ pen- ser,|O doulx|_ pen- ser|qui cau- se'à|aul- truy pei-|
w: |||||||
 c4 z2 a2 | a2 gf g2 a2 | e2 g2 f2 e2 | f3 e d2 e2 | f4 e4 |: z2 e2 e4 | g4 e2 e2 | a6 f2 | %24
w: ne, et|à mon _ cueur par-|faict con- ten- *||te- ment,|oc- troi-|ez moy quel-|que joy-|
w: ||||||||
 g2 a2 e4- | e4 A2 A2 | A2 B2 c2 BA | B4 A2 A2 | c3 d e2 f2 | e2 e2 g2 a2 | e2 e2 e2 f2 | %31
w: e cer- tai-|* ne, quel-|que joy- e cer- *|tai- ne, de|ce _ _ pen-|ser que jay in-|ces- sa ment, que|
w: |||||||
 e2 d2 c2 e2 | e2 e2 gf ed | e2 e2 d4- | d8 :| %35
w: jay in ces- sa-|ment, in ces- * * *|* sa- ment.|_|
w: ||||
V:4
 A8 |: A6 D2 | D2 d2 d4- | d2 d2 G2 G2 | A6 A2 | d2 d2 c4- | c4 z2 A2 | G2 F2 c2 d2 | A4 D4 | %9
w: Cest|à grant|tort quon dict|_ que le pen-|ser n'est|que lan- gueur|_ du-|ne cho- se'in- cer-|tai- ne,|
w: |je sous-|tient quil ne|_ peult of- fen-|ser, vue|qui est de|_ le-|al pen- ser plai-|* ne,|
[M:2/4] z2 A2 :|[M:2/2] z2 A2 c4- | c2 d2 A4 | z2 F2 A4- |"^b" A2 B2 F4- | F4 z2 F2 | F2 F2 G2 G2 | %16
w: car|O doulx|_ pen- ser,|O doulx|_ pen- ser|_ qui|cau- se'à aul- truy|
w: |||||||
 A4 D2 D2 | d2 d2 c2 A2 | A2 G2 A2 A2 | D2 d2 d2 c2 | d2 d2 A4 |: z2 A2 A4 | G4 A4- | A4 z4 | z8 | %25
w: pei- ne, at|à mon cueur par-|faict con- ten- te-|ment, par- faict con-|ten- te- ment,|oc- troi-|ez moy,|_||
w: |||||||||
 A4 c3 B | A2 G2 F4 | E4 z4 | A4 c2 d2 | A4 z4 | z4 A4 | c2 d2 A2 A2 |"^b" A2 c2 G2 B2 | A4 D4- | %34
w: quel- que joy-|e cer- tai-|ne,|de ce pen-|ser|que|jay in- ces- sa-|ment, in- ces- *|sa- ment.|
w: |||||||||
 D8 :| %35
w: _|
w: |

